X: 6
T: Gneevgullia
R: reel
M: 4/4
L: 1/8
K: Edor
|E3 F G2 EF | GBAG FDDF | EDEF GFGB | dBAd BAGF | E3 F [G,2G2] (3DEF | GBAG FDDF | ~E3 F GFGB | dBAd BEEf ||efed Bdef|gegf eddf|efed Bdeg|fedf e3 d|efed Bdef|gegf eddf|g2 ge dged | Bded BE{G}ED|||GBdg egdB|ADFD [D3A3] A|BGEF [G,3G3] B|dBAd BAGF||GBdg egdB|ADFD [D3A3] A|BGEF [G,3G3] B|dBAd BE{G}ED||


Tune 876	Setting 14055

